; generated by PrusaSlicer 2.1.1 on 2024-08-01 at 20:31:56 UTC

; 

; external perimeters extrusion width = 0.45mm
; perimeters extrusion width = 0.45mm
; infill extrusion width = 0.45mm
; solid infill extrusion width = 0.45mm
; top infill extrusion width = 0.40mm
; first layer extrusion width = 0.42mm

M201 X9000 Y9000 Z500 E10000 ; sets maximum accelerations, mm/sec^2
M203 X500 Y500 Z12 E120 ; sets maximum feedrates, mm/sec
M204 P1500 R1500 T1500 ; sets acceleration (P, T) and retract acceleration (R), mm/sec^2
M205 X10.00 Y10.00 Z0.20 E2.50 ; sets the jerk limits, mm/sec
M205 S0 T0 ; sets the minimum extruding and travel feed rate, mm/sec
M107
M104 S200 ; set temperature
G28 ; home all axes
G1 Z5 F5000 ; lift nozzle
M109 S200 ; set temperature and wait for it to be reached
G21 ; set units to millimeters
G90 ; use absolute coordinates
M82 ; use absolute distances for extrusion
G92 E0
; Filament gcode
G1 Z0.350 F7800.000
G1 E-2.00000 F2400.00000
G92 E0
G1 X87.130 Y90.080 F7800.000
G1 E2.00000 F2400.00000
G1 F1800
G1 X87.960 Y89.363 E2.05507
G1 X88.905 Y88.804 E2.11013
G1 X89.939 Y88.420 E2.16550
G1 X91.019 Y88.226 E2.22057
G1 X108.438 Y88.203 E3.09473
G1 X109.488 Y88.293 E3.14765
G1 X110.508 Y88.560 E3.20057
G1 X111.468 Y88.997 E3.25348
G1 X112.343 Y89.595 E3.30671
G1 X113.100 Y90.330 E3.35962
G1 X113.720 Y91.183 E3.41254
G1 X114.187 Y92.128 E3.46546
G1 X114.485 Y93.140 E3.51838
G1 X114.610 Y94.328 E3.57835
G1 X114.582 Y106.213 E4.17483
G1 X114.397 Y107.233 E4.22682
G1 X114.041 Y108.213 E4.27913
G1 X113.530 Y109.113 E4.33112
G1 X112.870 Y109.920 E4.38343
G1 X111.934 Y110.712 E4.44493
G1 X110.860 Y111.302 E4.50644
G1 X109.691 Y111.669 E4.56794
G1 X108.472 Y111.797 E4.62945
G1 X91.060 Y111.777 E5.50331
G1 X90.014 Y111.600 E5.55653
G1 X89.014 Y111.247 E5.60976
G1 X88.089 Y110.728 E5.66298
G1 X87.267 Y110.058 E5.71621
G1 X86.479 Y109.127 E5.77741
G1 X85.888 Y108.053 E5.83891
G1 X85.520 Y106.884 E5.90042
G1 X85.390 Y105.666 E5.96192
G1 X85.428 Y93.689 E6.56299
G1 X85.624 Y92.690 E6.61407
G1 X85.979 Y91.743 E6.66484
G1 X86.484 Y90.866 E6.71561
G1 X87.092 Y90.126 E6.76367
G1 E4.76367 F2400.00000
G92 E0
G1 X107.538 Y104.725 F7800.000
G1 E2.00000 F2400.00000
G1 F1800
G1 X92.462 Y104.725 E2.75658
G1 X92.462 Y95.275 E3.23086
G1 X107.538 Y95.275 E3.98744
G1 X107.538 Y104.665 E4.45871
G1 X107.883 Y105.070 F7800.000
G1 F1800
G1 X92.117 Y105.070 E5.24991
G1 X92.117 Y94.930 E5.75880
G1 X107.883 Y94.930 E6.55000
G1 X107.883 Y105.010 E7.05589
G1 X108.228 Y105.415 F7800.000
G1 F1800
G1 X91.772 Y105.415 E7.88170
G1 X91.772 Y94.585 E8.42522
G1 X108.228 Y94.585 E9.25103
G1 X108.228 Y105.355 E9.79154
G1 X107.835 Y105.338 F7800.000
G1 E7.79154 F2400.00000
G92 E0
G1 X107.434 Y96.084 F7800.000
G1 E2.00000 F2400.00000
G1 F1800
G1 X106.884 Y95.533 E2.03954
G1 X106.390 Y95.533 E2.06460
G1 X107.279 Y96.422 E2.12843
G1 X107.279 Y96.916 E2.15349
G1 X105.897 Y95.533 E2.25276
G1 X105.403 Y95.533 E2.27782
G1 X107.279 Y97.409 E2.41252
G1 X107.279 Y97.903 E2.43758
G1 X104.910 Y95.533 E2.60773
G1 X104.416 Y95.533 E2.63279
G1 X107.279 Y98.396 E2.83837
G1 X107.279 Y98.890 E2.86343
G1 X103.923 Y95.533 E3.10445
G1 X103.429 Y95.533 E3.12951
G1 X107.279 Y99.383 E3.40596
G1 X107.279 Y99.877 E3.43102
G1 X102.936 Y95.533 E3.74292
G1 X102.442 Y95.533 E3.76797
G1 X107.279 Y100.370 E4.11531
G1 X107.279 Y100.864 E4.14037
G1 X101.949 Y95.533 E4.52314
G1 X101.455 Y95.533 E4.54819
G1 X107.279 Y101.357 E4.96640
G1 X107.279 Y101.851 E4.99146
G1 X100.962 Y95.533 E5.44511
G1 X100.468 Y95.533 E5.47016
G1 X107.279 Y102.344 E5.95925
G1 X107.279 Y102.838 E5.98431
G1 X99.975 Y95.533 E6.50883
G1 X99.481 Y95.533 E6.53388
G1 X107.279 Y103.331 E7.09384
G1 X107.279 Y103.825 E7.11890
G1 X98.988 Y95.533 E7.71430
G1 X98.494 Y95.533 E7.73935
G1 X107.279 Y104.318 E8.37019
G1 X107.279 Y104.467 E8.37772
G1 X106.934 Y104.467 E8.39525
G1 X98.001 Y95.533 E9.03674
G1 X97.507 Y95.533 E9.06179
G1 X106.441 Y104.467 E9.70328
G1 X105.947 Y104.467 E9.72834
G1 X97.014 Y95.533 E10.36983
G1 X96.520 Y95.533 E10.39489
G1 X105.454 Y104.467 E11.03638
G1 X104.960 Y104.467 E11.06144
G1 X96.027 Y95.533 E11.70293
G1 X95.533 Y95.533 E11.72799
G1 X104.467 Y104.467 E12.36948
G1 X103.973 Y104.467 E12.39453
G1 X95.040 Y95.533 E13.03602
G1 X94.546 Y95.533 E13.06108
G1 X103.480 Y104.467 E13.70257
G1 X102.986 Y104.467 E13.72763
G1 X94.053 Y95.533 E14.36912
G1 X93.559 Y95.533 E14.39418
G1 X102.493 Y104.467 E15.03567
G1 X101.999 Y104.467 E15.06073
G1 X93.066 Y95.533 E15.70222
G1 X92.721 Y95.533 E15.71974
G1 X92.721 Y95.682 E15.72728
G1 X101.506 Y104.467 E16.35810
G1 X101.012 Y104.467 E16.38316
G1 X92.721 Y96.175 E16.97855
G1 X92.721 Y96.669 E17.00361
G1 X100.519 Y104.467 E17.56356
G1 X100.025 Y104.467 E17.58862
G1 X92.721 Y97.162 E18.11314
G1 X92.721 Y97.656 E18.13819
G1 X99.532 Y104.467 E18.62727
G1 X99.038 Y104.467 E18.65233
G1 X92.721 Y98.149 E19.10597
G1 X92.721 Y98.643 E19.13103
G1 X98.545 Y104.467 E19.54923
G1 X98.051 Y104.467 E19.57429
G1 X92.721 Y99.136 E19.95705
G1 X92.721 Y99.630 E19.98211
G1 X97.558 Y104.467 E20.32944
G1 X97.064 Y104.467 E20.35450
G1 X92.721 Y100.123 E20.66639
G1 X92.721 Y100.617 E20.69144
G1 X96.571 Y104.467 E20.96790
G1 X96.077 Y104.467 E20.99296
G1 X92.721 Y101.110 E21.23397
G1 X92.721 Y101.604 E21.25903
G1 X95.584 Y104.467 E21.46461
G1 X95.090 Y104.467 E21.48966
G1 X92.721 Y102.097 E21.65980
G1 X92.721 Y102.591 E21.68486
G1 X94.597 Y104.467 E21.81956
G1 X94.103 Y104.467 E21.84462
G1 X92.721 Y103.084 E21.94389
G1 X92.721 Y103.578 E21.96894
G1 X93.610 Y104.467 E22.03277
G1 X93.116 Y104.467 E22.05783
G1 X92.566 Y103.916 E22.09736
G1 Z0.550 F7800.000
G1 X107.398 Y104.586
G1 F3600
G1 X92.602 Y104.586 E22.59822
G1 X92.602 Y95.414 E22.90867
G1 X107.398 Y95.414 E23.40952
G1 X107.398 Y104.526 E23.71794
G1 X107.805 Y104.993 F7800.000
G1 F3600
G1 X92.195 Y104.993 E24.24635
G1 X92.195 Y95.007 E24.58437
G1 X107.805 Y95.007 E25.11278
G1 X107.805 Y104.933 E25.44876
G1 X108.213 Y105.400 F7800.000
G1 F1800
G1 X91.787 Y105.400 E26.00473
G1 X91.787 Y94.600 E26.37029
G1 X108.213 Y94.600 E26.92626
G1 X108.213 Y105.340 E27.28980
G1 X107.820 Y105.323 F7800.000
G1 X106.433 Y104.464
G1 F1200
G1 X107.093 Y103.804 E27.32211
G1 X107.093 Y103.215 E27.34251
G1 X106.028 Y104.281 E27.39471
G1 X105.438 Y104.281 E27.41511
G1 X107.093 Y102.626 E27.49615
G1 X107.093 Y102.037 E27.51655
G1 X104.849 Y104.281 E27.62644
G1 X104.260 Y104.281 E27.64684
G1 X107.093 Y101.448 E27.78558
G1 X107.093 Y100.859 E27.80598
G1 X103.671 Y104.281 E27.97357
G1 X103.082 Y104.281 E27.99397
G1 X107.093 Y100.270 E28.19041
G1 X107.093 Y99.681 E28.21081
G1 X102.493 Y104.281 E28.43611
G1 X101.904 Y104.281 E28.45651
G1 X107.093 Y99.092 E28.71065
G1 X107.093 Y98.503 E28.73105
G1 X101.315 Y104.281 E29.01404
G1 X100.726 Y104.281 E29.03444
G1 X107.093 Y97.914 E29.34629
G1 X107.093 Y97.325 E29.36669
G1 X100.137 Y104.281 E29.70738
G1 X99.548 Y104.281 E29.72778
G1 X107.093 Y96.736 E30.09732
G1 X107.093 Y96.147 E30.11772
G1 X98.959 Y104.281 E30.51612
G1 X98.370 Y104.281 E30.53652
G1 X106.931 Y95.719 E30.95583
G1 X106.342 Y95.719 E30.97623
G1 X97.781 Y104.281 E31.39554
G1 X97.192 Y104.281 E31.41594
G1 X105.753 Y95.719 E31.83526
G1 X105.164 Y95.719 E31.85566
G1 X96.603 Y104.281 E32.27497
G1 X96.014 Y104.281 E32.29537
G1 X104.575 Y95.719 E32.71469
G1 X103.986 Y95.719 E32.73509
G1 X95.425 Y104.281 E33.15440
G1 X94.836 Y104.281 E33.17480
G1 X103.397 Y95.719 E33.59411
G1 X102.808 Y95.719 E33.61451
G1 X94.247 Y104.281 E34.03383
G1 X93.658 Y104.281 E34.05423
G1 X102.219 Y95.719 E34.47354
G1 X101.630 Y95.719 E34.49394
G1 X93.069 Y104.281 E34.91326
G1 X92.907 Y104.281 E34.91886
G1 X92.907 Y103.853 E34.93366
G1 X101.041 Y95.719 E35.33204
G1 X100.452 Y95.719 E35.35244
G1 X92.907 Y103.264 E35.72198
G1 X92.907 Y102.675 E35.74238
G1 X99.863 Y95.719 E36.08307
G1 X99.274 Y95.719 E36.10347
G1 X92.907 Y102.086 E36.41531
G1 X92.907 Y101.497 E36.43571
G1 X98.685 Y95.719 E36.71869
G1 X98.096 Y95.719 E36.73909
G1 X92.907 Y100.908 E36.99323
G1 X92.907 Y100.319 E37.01363
G1 X97.507 Y95.719 E37.23892
G1 X96.918 Y95.719 E37.25932
G1 X92.907 Y99.730 E37.45575
G1 X92.907 Y99.141 E37.47615
G1 X96.329 Y95.719 E37.64374
G1 X95.739 Y95.719 E37.66414
G1 X92.907 Y98.552 E37.80287
G1 X92.907 Y97.963 E37.82328
G1 X95.150 Y95.719 E37.93316
G1 X94.561 Y95.719 E37.95356
G1 X92.907 Y97.374 E38.03460
G1 X92.907 Y96.785 E38.05500
G1 X93.972 Y95.719 E38.10718
G1 X93.383 Y95.719 E38.12758
G1 X92.724 Y96.379 E38.15989
G1 Z0.750 F7800.000
G1 X107.398 Y104.586
G1 F3600
G1 X92.602 Y104.586 E38.66074
G1 X92.602 Y95.414 E38.97119
G1 X107.398 Y95.414 E39.47205
G1 X107.398 Y104.526 E39.78047
G1 X107.805 Y104.993 F7800.000
G1 F3600
G1 X92.195 Y104.993 E40.30888
G1 X92.195 Y95.007 E40.64689
G1 X107.805 Y95.007 E41.17530
G1 X107.805 Y104.933 E41.51128
G1 X108.213 Y105.400 F7800.000
G1 F1800
G1 X91.787 Y105.400 E42.06725
G1 X91.787 Y94.600 E42.43282
G1 X108.213 Y94.600 E42.98879
G1 X108.213 Y105.340 E43.35233
G1 X107.820 Y105.323 F7800.000
G1 X107.276 Y96.379
G1 F1200
G1 X106.617 Y95.719 E43.38464
G1 X106.028 Y95.719 E43.40504
G1 X107.093 Y96.785 E43.45723
G1 X107.093 Y97.374 E43.47763
G1 X105.438 Y95.719 E43.55867
G1 X104.849 Y95.719 E43.57907
G1 X107.093 Y97.963 E43.68896
G1 X107.093 Y98.552 E43.70936
G1 X104.260 Y95.719 E43.84810
G1 X103.671 Y95.719 E43.86850
G1 X107.093 Y99.141 E44.03610
G1 X107.093 Y99.730 E44.05650
G1 X103.082 Y95.719 E44.25294
G1 X102.493 Y95.719 E44.27334
G1 X107.093 Y100.319 E44.49863
G1 X107.093 Y100.908 E44.51903
G1 X101.904 Y95.719 E44.77317
G1 X101.315 Y95.719 E44.79357
G1 X107.093 Y101.497 E45.07657
G1 X107.093 Y102.086 E45.09697
G1 X100.726 Y95.719 E45.40881
G1 X100.137 Y95.719 E45.42921
G1 X107.093 Y102.675 E45.76990
G1 X107.093 Y103.264 E45.79030
G1 X99.548 Y95.719 E46.15985
G1 X98.959 Y95.719 E46.18025
G1 X107.093 Y103.853 E46.57864
G1 X107.093 Y104.281 E46.59343
G1 X106.931 Y104.281 E46.59904
G1 X98.370 Y95.719 E47.01835
G1 X97.781 Y95.719 E47.03875
G1 X106.342 Y104.281 E47.45807
G1 X105.753 Y104.281 E47.47847
G1 X97.192 Y95.719 E47.89778
G1 X96.603 Y95.719 E47.91818
G1 X105.164 Y104.281 E48.33750
G1 X104.575 Y104.281 E48.35790
G1 X96.014 Y95.719 E48.77721
G1 X95.425 Y95.719 E48.79761
G1 X103.986 Y104.281 E49.21692
G1 X103.397 Y104.281 E49.23732
G1 X94.836 Y95.719 E49.65664
G1 X94.247 Y95.719 E49.67704
G1 X102.808 Y104.281 E50.09635
G1 X102.219 Y104.281 E50.11675
G1 X93.658 Y95.719 E50.53607
G1 X93.069 Y95.719 E50.55647
G1 X101.630 Y104.281 E50.97578
G1 X101.041 Y104.281 E50.99618
G1 X92.907 Y96.147 E51.39457
G1 X92.907 Y96.736 E51.41497
G1 X100.452 Y104.281 E51.78451
G1 X99.863 Y104.281 E51.80491
G1 X92.907 Y97.325 E52.14559
G1 X92.907 Y97.914 E52.16599
G1 X99.274 Y104.281 E52.47783
G1 X98.685 Y104.281 E52.49823
G1 X92.907 Y98.503 E52.78122
G1 X92.907 Y99.092 E52.80162
G1 X98.096 Y104.281 E53.05575
G1 X97.507 Y104.281 E53.07615
G1 X92.907 Y99.681 E53.30144
G1 X92.907 Y100.270 E53.32184
G1 X96.918 Y104.281 E53.51828
G1 X96.329 Y104.281 E53.53868
G1 X92.907 Y100.859 E53.70626
G1 X92.907 Y101.448 E53.72666
G1 X95.739 Y104.281 E53.86540
G1 X95.150 Y104.281 E53.88580
G1 X92.907 Y102.037 E53.99568
G1 X92.907 Y102.626 E54.01608
G1 X94.561 Y104.281 E54.09712
G1 X93.972 Y104.281 E54.11752
G1 X92.907 Y103.215 E54.16971
G1 X92.907 Y103.804 E54.19011
G1 X93.567 Y104.464 E54.22241
M106 S252.45
G1 Z0.950 F7800.000
G1 X107.398 Y104.586
G1 F3600
G1 X92.602 Y104.586 E54.72327
G1 X92.602 Y95.414 E55.03372
G1 X107.398 Y95.414 E55.53457
G1 X107.398 Y104.526 E55.84299
G1 X107.805 Y104.993 F7800.000
G1 F3600
G1 X92.195 Y104.993 E56.37140
G1 X92.195 Y95.007 E56.70941
G1 X107.805 Y95.007 E57.23782
G1 X107.805 Y104.933 E57.57380
G1 X108.213 Y105.400 F7800.000
G1 F1800
G1 X91.787 Y105.400 E58.12977
G1 X91.787 Y94.600 E58.49534
G1 X108.213 Y94.600 E59.05131
G1 X108.213 Y105.340 E59.41485
G1 X107.820 Y105.323 F7800.000
G1 X105.126 Y104.464
G1 F4654
G1 X107.093 Y97.121 E59.67217
G1 X107.093 Y95.719 E59.71960
G1 X101.147 Y95.719 E59.92087
G1 X98.853 Y104.281 E60.22088
G1 X92.907 Y104.281 E60.42215
G1 X92.907 Y102.879 E60.46958
G1 X94.874 Y95.536 E60.72690
G1 X92.724 Y98.789 F7800.000
G1 F4654
G1 X104.863 Y95.536 E61.15228
G1 X107.276 Y98.641 F7800.000
G1 F4654
G1 X104.355 Y95.719 E61.29213
G1 X95.719 Y95.719 E61.58443
G1 X104.281 Y104.281 E61.99425
G1 X95.645 Y104.281 E62.28655
G1 X92.724 Y101.359 E62.42639
G1 X95.137 Y104.464 F7800.000
G1 F4654
G1 X107.276 Y101.211 E62.85177
G1 Z1.150 F7800.000
G1 X107.251 Y104.430
G1 F3600
G1 X92.749 Y104.430 E63.34266
G1 X92.749 Y95.570 E63.64254
G1 X107.251 Y95.570 E64.13343
G1 X107.251 Y104.370 E64.43127
G1 X107.658 Y104.837 F7800.000
G1 F3600
G1 X92.342 Y104.837 E64.94972
G1 X92.342 Y95.163 E65.27716
G1 X107.658 Y95.163 E65.79560
G1 X107.658 Y104.777 E66.12101
G1 X108.065 Y105.244 F7800.000
G1 F1800
G1 X91.935 Y105.244 E66.66701
G1 X91.935 Y94.756 E67.02201
G1 X108.065 Y94.756 E67.56801
G1 X108.065 Y105.184 E67.92097
G1 X107.673 Y105.167 F7800.000
G1 X105.167 Y104.308
G1 F3969
G1 X106.946 Y97.670 E68.15357
G1 X106.946 Y95.876 E68.21431
G1 X101.105 Y95.876 E68.41201
G1 X98.895 Y104.124 E68.70107
G1 X93.054 Y104.124 E68.89877
G1 X93.054 Y102.330 E68.95951
G1 X94.833 Y95.692 E69.19211
G1 X92.871 Y98.749 F7800.000
G1 F3969
G1 X104.280 Y95.692 E69.59190
G1 X107.129 Y98.494 F7800.000
G1 F3969
G1 X104.511 Y95.876 E69.71722
G1 X95.876 Y95.876 E70.00952
G1 X104.124 Y104.124 E70.40438
G1 X95.489 Y104.124 E70.69668
G1 X92.871 Y101.506 E70.82200
G1 X95.720 Y104.308 F7800.000
G1 F3969
G1 X107.129 Y101.251 E71.22180
G1 Z1.350 F7800.000
G1 X107.251 Y104.430
G1 F3600
G1 X92.749 Y104.430 E71.71269
G1 X92.749 Y95.570 E72.01257
G1 X107.251 Y95.570 E72.50345
G1 X107.251 Y104.370 E72.80130
G1 X107.658 Y104.837 F7800.000
G1 F3600
G1 X92.342 Y104.837 E73.31975
G1 X92.342 Y95.163 E73.64718
G1 X107.658 Y95.163 E74.16563
G1 X107.658 Y104.777 E74.49103
G1 X108.065 Y105.244 F7800.000
G1 F1800
G1 X91.935 Y105.244 E75.03704
G1 X91.935 Y94.756 E75.39203
G1 X108.065 Y94.756 E75.93804
G1 X108.065 Y105.184 E76.29100
G1 X107.673 Y105.167 F7800.000
G1 X105.167 Y104.308
G1 F3968
G1 X106.946 Y97.670 E76.52360
G1 X106.946 Y95.876 E76.58433
G1 X101.105 Y95.876 E76.78204
G1 X98.895 Y104.124 E77.07109
G1 X93.054 Y104.124 E77.26880
G1 X93.054 Y102.330 E77.32954
G1 X94.833 Y95.692 E77.56213
G1 X92.871 Y98.749 F7800.000
G1 F3968
G1 X104.280 Y95.692 E77.96193
G1 X107.129 Y98.494 F7800.000
G1 F3968
G1 X104.511 Y95.876 E78.08725
G1 X95.876 Y95.876 E78.37955
G1 X104.124 Y104.124 E78.77441
G1 X95.489 Y104.124 E79.06671
G1 X92.871 Y101.506 E79.19203
G1 X95.720 Y104.308 F7800.000
G1 F3968
G1 X107.129 Y101.251 E79.59182
G1 Z1.550 F7800.000
G1 X107.251 Y104.430
G1 F3600
G1 X92.749 Y104.430 E80.08271
G1 X92.749 Y95.570 E80.38259
G1 X107.251 Y95.570 E80.87348
G1 X107.251 Y104.370 E81.17132
G1 X107.658 Y104.837 F7800.000
G1 F3600
G1 X92.342 Y104.837 E81.68977
G1 X92.342 Y95.163 E82.01721
G1 X107.658 Y95.163 E82.53565
G1 X107.658 Y104.777 E82.86106
G1 X108.065 Y105.244 F7800.000
G1 F1800
G1 X91.935 Y105.244 E83.40706
G1 X91.935 Y94.756 E83.76206
G1 X108.065 Y94.756 E84.30806
G1 X108.065 Y105.184 E84.66102
G1 X107.673 Y105.167 F7800.000
G1 X105.167 Y104.308
G1 F3968
G1 X106.946 Y97.670 E84.89362
G1 X106.946 Y95.876 E84.95436
G1 X101.105 Y95.876 E85.15206
G1 X98.895 Y104.124 E85.44112
G1 X93.054 Y104.124 E85.63882
G1 X93.054 Y102.330 E85.69956
G1 X94.833 Y95.692 E85.93216
G1 X92.871 Y98.749 F7800.000
G1 F3968
G1 X104.280 Y95.692 E86.33195
G1 X107.129 Y98.494 F7800.000
G1 F3968
G1 X104.511 Y95.876 E86.45727
G1 X95.876 Y95.876 E86.74957
G1 X104.124 Y104.124 E87.14443
G1 X95.489 Y104.124 E87.43673
G1 X92.871 Y101.506 E87.56205
G1 X95.720 Y104.308 F7800.000
G1 F3968
G1 X107.129 Y101.251 E87.96185
G1 Z1.750 F7800.000
G1 X107.251 Y104.430
G1 F3600
G1 X92.749 Y104.430 E88.45274
G1 X92.749 Y95.570 E88.75262
G1 X107.251 Y95.570 E89.24350
G1 X107.251 Y104.370 E89.54135
G1 X107.658 Y104.837 F7800.000
G1 F3600
G1 X92.342 Y104.837 E90.05980
G1 X92.342 Y95.163 E90.38723
G1 X107.658 Y95.163 E90.90568
G1 X107.658 Y104.777 E91.23108
G1 X108.065 Y105.244 F7800.000
G1 F1800
G1 X91.935 Y105.244 E91.77709
